X:0
T:Miss Gordon of Gight
G:reel
C:Isaac Cooper
G:fiddle reel, early 1780s
M:C|
L:1/8
Q:1/2=104
N:often played much slower these days; there's nothing
N:in the original published version to suggest that
K:CMin
G,CEG cgec|BdBG FDB,D|CEGE DFBG|FDB,D C/C/C C2:|
egbg  agfe|defg fdBf |egbg agfe|dBfd  c/c/c c2 |
egbg  agfe|defg fdBf |gfed cdec|BGFD  EC    C2|]
